static/images/user-logos/1aim.svg

<svg viewBox="0 0 570.3 208.7" xmlns="http://www.w3.org/2000/svg"><path d="m271.1 63.8c0-1.5-.5-1.9-2-1.9-8.9.1-17.9.1-26.8 0-1.5 0-2 .4-2 1.9-.2 4.9-.5 9.9-.8 15.3-1.7-2.2-3-4.1-4.6-5.7-8.9-9.3-20.1-13.6-32.7-14.5-7.2-.5-14.4 0-21.4 1.6-18 4-31.8 13.1-40.3 28-2 3.5-3.7 7.3-5.1 11.4-6 17.7-5.6 35.8-.1 53.6 3.5 11.1 9.6 20.5 18.5 27.5 1.5 1.2 3.1 2.3 4.7 3.4 15.1 9.5 31.6 12.4 49 9.2 10-1.8 19-6.2 26.3-13.5 2.1-2.1 3.7-4.7 5.6-7.6.5 5.7.9 10.9 1.2 16.1.1 1.7.6 2.3 2.4 2.3 8.7-.1 17.3-.1 26 0 1.5 0 1.9-.4 1.9-1.9v-54-61.5c.2-3.3.2-6.5.2-9.7zm-33 55.8c1.5 8.6.9 16.7-2.3 24.4-1 2.3-2.1 4.6-3.5 6.8-5.5 8.6-13.4 13.6-23.4 15.3-10.6 1.8-20.6.3-29.7-5.8-.6-.4-1.1-.8-1.7-1.2-8.1-6.1-12.5-14.5-13.9-24.7-1.2-9.1-.4-18 3.9-26.3 2.8-5.4 6.5-9.6 10.9-12.7 4.5-3.1 9.8-5.2 15.8-6.2.9-.1 1.7-.3 2.6-.4 1.5-.1 3 0 4.4 0 10.8-.2 20.2 3.3 27.6 11.3 2 2.2 3.7 4.6 5.1 7.2 2.1 3.9 3.4 8 4.2 12.3zm96.4 6.4v-18.6-43.7c0-1.7-.3-2.5-2.3-2.4-9.3.1-18.6.1-27.8 0-1.5 0-1.9.4-1.9 1.9v125.7c0 1.6.5 2 2 2 9.2-.1 18.4-.1 27.6 0 1.8 0 2.4-.5 2.4-2.3v-32.9zm235.2-16.1c0-.5-.1-.9-.2-1.4-3.1-25.9-15.8-41.8-37.5-47-2.3-.5-4.7-1-7.1-1.3-3.2-.4-6.5-.6-9.9-.6-19.1 0-32.8 7.2-42.9 22.6-9-20.1-27.7-23.1-38.2-23.1-4.9 0-19.3.9-29.1 10.7-1.6 1.6-3.1 3.4-4.4 5.5l-1-6.7-1-6.7c-.1-.4-.4-.7-.8-.7h-29.5c-.4 0-.8.3-.8.8v128.8c0 .4.3.8.8.8h31.8c.4 0 .8-.3.8-.8v-68.9c0-8.3 2.5-16.6 7.5-22.6 4.4-5.4 10.8-9 19.1-9 16.9 0 24.9 14.5 25.5 29.6v70.8c0 .4.3.8.8.8h31.8c.4 0 .8-.3.8-.8v-68.8c0-15.2 7.6-25 17-29 3.2-1.4 6.7-2.1 10.1-2.1.5 0 .9 0 1.4.1 6.9.3 12.4 3.3 16.2 8.5s5.9 12.7 5.9 21.9v69.4c0 .4.3.8.8.8h31.8c.4 0 .8-.3.8-.8v-69.4c.1-3.9-.1-7.8-.5-11.4z" fill="#c6c6c6"/><path d="m0 39.7.1 23.7 25.1-11.8-15.3-16.4z" fill="#059dd9"/><path d="m45.3 18.9 41.3 19.4-41.5 34.6-13.8-14.8v-9.4l-6.1 2.9-15.3-16.4z" fill="#342e7d"/><path d="m86.5 0 .1 38.3-41.3-19.4z" fill="#e20a74"/><path d="m70.9 100.4-25.8-27.5 41.5-34.6-.1 38.8z" fill="#a02381"/><path d="m31.3 159.6 39.6-59.2-25.8-27.5-13.8 11.9z" fill="#ed7b23"/><path d="m31.3 177.3 55.3-59.9-15.7-17-39.6 59.2z" fill="#ffe814"/><path d="m86.5 182.3.1-64.9-55.3 59.9z" fill="#98bd35"/><path d="m31.3 208.7 55.2-26.4-55.2-5z" fill="#019447"/><path d="m86.6 117.4-15.7-17 15.6-23.3z" fill="#e22432"/><path d="m31.3 58.1v26.7l13.8-11.9z" fill="#059dd9"/></svg>

<svg xmlns="http://www.w3.org/2000/svg" viewBox="0 0 570.3 208.7"><path fill="#C6C6C6" d="M271.1 63.8c0-1.5-.5-1.9-2-1.9-8.9.1-17.9.1-26.8 0-1.5 0-2 .4-2 1.9-.2 4.9-.5 9.9-.8 15.3-1.7-2.2-3-4.1-4.6-5.7-8.9-9.3-20.1-13.6-32.7-14.5-7.2-.5-14.4 0-21.4 1.6-18 4-31.8 13.1-40.3 28-2 3.5-3.7 7.3-5.1 11.4-6 17.7-5.6 35.8-.1 53.6 3.5 11.1 9.6 20.5 18.5 27.5 1.5 1.2 3.1 2.3 4.7 3.4 15.1 9.5 31.6 12.4 49 9.2 10-1.8 19-6.2 26.3-13.5 2.1-2.1 3.7-4.7 5.6-7.6.5 5.7.9 10.9 1.2 16.1.1 1.7.6 2.3 2.4 2.3 8.7-.1 17.3-.1 26 0 1.5 0 1.9-.4 1.9-1.9v-54-61.5c.2-3.3.2-6.5.2-9.7zm-33 55.8c1.5 8.6.9 16.7-2.3 24.4-1 2.3-2.1 4.6-3.5 6.8-5.5 8.6-13.4 13.6-23.4 15.3-10.6 1.8-20.6.3-29.7-5.8-.6-.4-1.1-.8-1.7-1.2-8.1-6.1-12.5-14.5-13.9-24.7-1.2-9.1-.4-18 3.9-26.3 2.8-5.4 6.5-9.6 10.9-12.7 4.5-3.1 9.8-5.2 15.8-6.2.9-.1 1.7-.3 2.6-.4 1.5-.1 3 0 4.4 0 10.8-.2 20.2 3.3 27.6 11.3 2 2.2 3.7 4.6 5.1 7.2 2.1 3.9 3.4 8 4.2 12.3zm96.4 6.4v-18.6-43.7c0-1.7-.3-2.5-2.3-2.4-9.3.1-18.6.1-27.8 0-1.5 0-1.9.4-1.9 1.9V188.9c0 1.6.5 2 2 2 9.2-.1 18.4-.1 27.6 0 1.8 0 2.4-.5 2.4-2.3v-32.9V126zm235.2-16.1c0-.5-.1-.9-.2-1.4-3.1-25.9-15.8-41.8-37.5-47-2.3-.5-4.7-1-7.1-1.3-3.2-.4-6.5-.6-9.9-.6-19.1 0-32.8 7.2-42.9 22.6-9-20.1-27.7-23.1-38.2-23.1-4.9 0-19.3.9-29.1 10.7-1.6 1.6-3.1 3.4-4.4 5.5l-1-6.7-1-6.7c-.1-.4-.4-.7-.8-.7h-29.5c-.4 0-.8.3-.8.8v128.8c0 .4.3.8.8.8h31.8c.4 0 .8-.3.8-.8v-68.9c0-8.3 2.5-16.6 7.5-22.6 4.4-5.4 10.8-9 19.1-9 16.9 0 24.9 14.5 25.5 29.6v70.8c0 .4.3.8.8.8h31.8c.4 0 .8-.3.8-.8V121.9c0-15.2 7.6-25 17-29 3.2-1.4 6.7-2.1 10.1-2.1.5 0 .9 0 1.4.1 6.9.3 12.4 3.3 16.2 8.5 3.8 5.2 5.9 12.7 5.9 21.9V190.7c0 .4.3.8.8.8h31.8c.4 0 .8-.3.8-.8v-69.4c.1-3.9-.1-7.8-.5-11.4z"/><g><path fill="#059DD9" d="M0 39.7L0.1 63.4 25.2 51.6 9.9 35.2z"/><path fill="#342E7D" d="M45.3 18.9L86.6 38.3 45.1 72.9 31.3 58.1 31.3 48.7 25.2 51.6 9.9 35.2z"/><path fill="#E20A74" d="M86.5 0L86.6 38.3 45.3 18.9z"/><path fill="#A02381" d="M70.9 100.4L45.1 72.9 86.6 38.3 86.5 77.1z"/><path fill="#ED7B23" d="M31.3 159.6L70.9 100.4 45.1 72.9 31.3 84.8z"/><path fill="#FFE814" d="M31.3 177.3L86.6 117.4 70.9 100.4 31.3 159.6z"/><path fill="#98BD35" d="M86.5 182.3L86.6 117.4 31.3 177.3z"/><path fill="#019447" d="M31.3 208.7L86.5 182.3 31.3 177.3z"/><path fill="#E22432" d="M86.6 117.4L70.9 100.4 86.5 77.1z"/><path fill="#059DD9" d="M31.3 58.1L31.3 84.8 45.1 72.9z"/></g></svg>
